google-analytics-dashboard-for-wp/lite/assets/vue/img/icon-site-notes.svg

<svg width="18" height="19" viewBox="0 0 18 19" fill="none" xmlns="http://www.w3.org/2000/svg">
<path fill-rule="evenodd" clip-rule="evenodd" d="M17.7059 2.00551C17.182 1.47571 16.6547 0.949325 16.1274 0.422943L15.9516 0.247424C15.6222 -0.0814546 15.3793 -0.0828641 15.0509 0.245545L15.049 0.247476C11.7801 3.51635 8.51121 6.78523 5.24656 10.0588C5.13521 10.1702 5.04125 10.3182 4.99004 10.4666C4.81253 10.9831 4.64049 11.5016 4.46846 12.0201C4.33358 12.4266 4.1987 12.8331 4.06119 13.2386C3.98226 13.4712 3.96675 13.6821 4.15609 13.8653C4.33792 14.042 4.54699 14.0204 4.76734 13.9466C5.09281 13.8371 5.4187 13.7289 5.74458 13.6206L5.74479 13.6206L5.74494 13.6205C6.33625 13.4241 6.92754 13.2277 7.51629 13.0239C7.67885 12.9675 7.84188 12.8665 7.96357 12.7453C11.2096 9.50723 14.4505 6.26402 17.6899 3.01987C17.7678 2.94203 17.8358 2.85436 17.9038 2.76669C17.9355 2.72578 17.9673 2.68486 18 2.64495V2.36352C17.9693 2.32565 17.9394 2.28684 17.9095 2.24801L17.9095 2.24793C17.8449 2.16395 17.7802 2.07988 17.7064 2.00504L17.7059 2.00551ZM16.6319 2.66609C13.5451 5.75473 10.4583 8.84337 7.36783 11.9282C7.27856 12.0175 7.15688 12.0889 7.03707 12.1312C6.66031 12.2644 6.28061 12.3892 5.90099 12.5141C5.77693 12.5549 5.65287 12.5957 5.52893 12.6367C5.48541 12.651 5.44125 12.663 5.38542 12.6781L5.38539 12.6781C5.35864 12.6853 5.32922 12.6932 5.29589 12.7025C5.34804 12.546 5.39938 12.3913 5.45022 12.2382L5.45022 12.2382C5.61143 11.7527 5.76755 11.2826 5.92828 10.8143C5.94538 10.7645 5.98956 10.7224 6.03193 10.682C6.04193 10.6725 6.05182 10.663 6.06124 10.6536C9.15928 7.55369 12.2578 4.45519 15.3568 1.35668C15.3881 1.3253 15.4217 1.29565 15.4493 1.27133C15.4597 1.26216 15.4693 1.25374 15.4775 1.24627C15.9036 1.671 16.3227 2.08914 16.7601 2.52561C16.752 2.53452 16.7423 2.54561 16.7314 2.55813L16.7314 2.55815C16.7042 2.58919 16.6694 2.62907 16.6319 2.66656V2.66609ZM15.9868 9.43065C15.9558 9.19292 15.765 9.02378 15.5245 9.01392C15.1961 9.00029 15.0001 9.22205 14.9997 9.61388C14.9994 11.1925 14.9995 12.7711 14.9996 14.3497L14.9997 16.7177V16.9953H1.01248V3.00859H1.33008C3.98648 3.00859 6.64241 3.00859 9.29881 3.00718C9.41485 3.00718 9.53513 3.00343 9.64648 2.9743C9.86307 2.91792 9.99415 2.72764 9.99321 2.50259C9.99227 2.27707 9.85978 2.09055 9.64319 2.03323C9.54687 2.00786 9.44257 2.00176 9.34203 2.00176C6.45166 2.00035 3.56081 2.00035 0.670442 2.00082C0.16303 2.00035 0 2.16572 0 2.67643V17.3294C0 17.8528 0.160211 18.013 0.685947 18.013H15.3107C15.8411 18.013 15.9957 17.8589 15.9957 17.3308V9.68812L15.9958 9.65017V9.65016C15.9961 9.57664 15.9964 9.50279 15.9868 9.43065ZM1.99535 15.1996C1.99628 14.9746 2.12878 14.7876 2.34537 14.7303C2.44215 14.7049 2.54598 14.6988 2.64652 14.6988H4.66631C4.67054 14.6983 4.67383 14.6979 4.67852 14.6979C5.41617 14.6976 6.15402 14.6977 6.89181 14.6978C7.26067 14.6978 7.62952 14.6979 7.99832 14.6979H11.3181C11.3199 14.6979 11.3215 14.698 11.3231 14.6982C11.3255 14.6985 11.3277 14.6988 11.3303 14.6988H13.3501C13.4507 14.6988 13.555 14.7049 13.6513 14.7303C13.8679 14.7876 14.0004 14.9741 14.0013 15.1996C14.0022 15.4247 13.8711 15.615 13.6546 15.6714C13.5432 15.7005 13.4229 15.7042 13.3069 15.7042C12.4254 15.7052 11.544 15.7052 10.6626 15.7052H10.6599H10.658H7.99832H5.33863H5.33675C4.89558 15.7049 4.45442 15.7048 4.01325 15.7047C3.57208 15.7046 3.13092 15.7045 2.68975 15.7042C2.57323 15.7042 2.45343 15.7005 2.34208 15.6714C2.12502 15.615 1.99441 15.4242 1.99535 15.1996Z" fill="#210F59"/>
</svg>

<svg width="18" height="19" fill="none" xmlns="http://www.w3.org/2000/svg"><path fill-rule="evenodd" clip-rule="evenodd" d="M17.706 2.006c-.524-.53-1.051-1.057-1.579-1.583l-.175-.176c-.33-.328-.573-.33-.901-.001l-.002.001c-3.269 3.27-6.538 6.538-9.802 9.812a1.1 1.1 0 00-.257.408c-.177.516-.35 1.035-.522 1.553-.134.407-.27.813-.407 1.219-.079.232-.094.443.095.626.182.177.391.155.611.082.326-.11.652-.218.978-.326.591-.197 1.183-.393 1.771-.597a1.21 1.21 0 00.448-.279C11.21 9.507 14.45 6.264 17.69 3.02c.078-.078.146-.166.214-.253.032-.041.063-.082.096-.122v-.281a5.875 5.875 0 01-.09-.116 2.589 2.589 0 00-.204-.243zm-1.074.66c-3.087 3.089-6.174 6.177-9.264 9.262a.916.916 0 01-.33.203c-.378.133-.757.258-1.137.383l-.372.123a2.803 2.803 0 01-.144.041l-.09.024.155-.464c.161-.485.318-.955.478-1.424.017-.05.062-.092.104-.132l.03-.028c3.097-3.1 6.196-6.199 9.295-9.297.031-.032.065-.061.092-.086l.028-.025 1.283 1.28-.029.032a2.154 2.154 0 01-.1.109zm-.645 6.765a.475.475 0 00-.463-.417c-.328-.014-.524.208-.524.6v7.381H1.012V3.01h.318c2.656 0 5.312 0 7.969-.002.116 0 .236-.004.347-.033a.467.467 0 00.347-.471.47.47 0 00-.35-.47 1.195 1.195 0 00-.301-.031C6.452 2 3.561 2 .67 2 .163 2 0 2.166 0 2.676V17.33c0 .524.16.684.686.684H15.31c.53 0 .685-.154.685-.682V9.65c0-.073 0-.147-.01-.22zM1.995 15.2a.47.47 0 01.35-.47 1.22 1.22 0 01.302-.031h2.02l.012-.001h6.639a.04.04 0 01.005 0h2.027c.1 0 .205.007.301.032.217.058.35.244.35.47a.466.466 0 01-.346.471c-.112.03-.232.033-.348.033l-2.644.001H5.337a2919.421 2919.421 0 00-2.647 0 1.39 1.39 0 01-.348-.034.467.467 0 01-.347-.471z" fill="#210F59"/></svg>
